ti/camera-outline.svg

<svg version="1.2" baseProfile="tiny" xmlns="http://www.w3.org/2000/svg" viewBox="0 0 24 24" height="1em" width="1em">
  <path d="M19 20h-14c-1.654 0-3-1.346-3-3v-8c0-1.654 1.346-3 3-3h1.586l1-1c.579-.579 1.596-1 2.414-1h4c.818 0 1.835.421 2.414 1l1 1h1.586c1.654 0 3 1.346 3 3v8c0 1.654-1.346 3-3 3zm-14-12c-.552 0-1 .448-1 1v8c0 .552.448 1 1 1h14c.552 0 1-.448 1-1v-8c0-.552-.448-1-1-1h-2c-.266 0-.52-.105-.707-.293l-1.293-1.293c-.201-.201-.715-.414-1-.414h-4c-.285 0-.799.213-1 .414l-1.293 1.293c-.187.188-.441.293-.707.293h-2zM12 10c1.379 0 2.5 1.121 2.5 2.5s-1.121 2.5-2.5 2.5-2.5-1.121-2.5-2.5 1.121-2.5 2.5-2.5m0-1c-1.934 0-3.5 1.566-3.5 3.5 0 1.932 1.566 3.5 3.5 3.5s3.5-1.568 3.5-3.5c0-1.934-1.566-3.5-3.5-3.5zM18 8.699c-.719 0-1.3.582-1.3 1.301s.581 1.299 1.3 1.299 1.3-.58 1.3-1.299-.581-1.301-1.3-1.301z"/>
</svg>

<svg version="1.2" baseProfile="tiny" xmlns="http://www.w3.org/2000/svg" viewBox="0 0 24 24" height="1em" width="1em">
  <path d="M19 20H5c-1.654 0-3-1.346-3-3V9c0-1.654 1.346-3 3-3h1.586l1-1C8.165 4.421 9.182 4 10 4h4c.818 0 1.835.421 2.414 1l1 1H19c1.654 0 3 1.346 3 3v8c0 1.654-1.346 3-3 3zM5 8a1 1 0 0 0-1 1v8a1 1 0 0 0 1 1h14a1 1 0 0 0 1-1V9a1 1 0 0 0-1-1h-2a.996.996 0 0 1-.707-.293L15 6.414C14.799 6.213 14.285 6 14 6h-4c-.285 0-.799.213-1 .414L7.707 7.707A.996.996 0 0 1 7 8H5zm7 2c1.379 0 2.5 1.121 2.5 2.5S13.379 15 12 15s-2.5-1.121-2.5-2.5S10.621 10 12 10m0-1a3.5 3.5 0 1 0 0 7 3.5 3.5 0 0 0 0-7zm6-.301a1.3 1.3 0 1 0 0 2.6 1.3 1.3 0 0 0 0-2.6z"/>
</svg>
